svgs/thin/grid-horizontal.svg

<svg xmlns="http://www.w3.org/2000/svg" viewBox="0 0 448 512"><!--! Font Awesome Pro 6.6.0 by @fontawesome - https://fontawesome.com License - https://fontawesome.com/license (Commercial License) Copyright 2024 Fonticons, Inc. --><path d="M40 144c-13.3 0-24 10.7-24 24l0 48c0 13.3 10.7 24 24 24l48 0c13.3 0 24-10.7 24-24l0-48c0-13.3-10.7-24-24-24l-48 0zM0 168c0-22.1 17.9-40 40-40l48 0c22.1 0 40 17.9 40 40l0 48c0 22.1-17.9 40-40 40l-48 0c-22.1 0-40-17.9-40-40l0-48zM40 304c-13.3 0-24 10.7-24 24l0 48c0 13.3 10.7 24 24 24l48 0c13.3 0 24-10.7 24-24l0-48c0-13.3-10.7-24-24-24l-48 0zM0 328c0-22.1 17.9-40 40-40l48 0c22.1 0 40 17.9 40 40l0 48c0 22.1-17.9 40-40 40l-48 0c-22.1 0-40-17.9-40-40l0-48zM248 144l-48 0c-13.3 0-24 10.7-24 24l0 48c0 13.3 10.7 24 24 24l48 0c13.3 0 24-10.7 24-24l0-48c0-13.3-10.7-24-24-24zm-48-16l48 0c22.1 0 40 17.9 40 40l0 48c0 22.1-17.9 40-40 40l-48 0c-22.1 0-40-17.9-40-40l0-48c0-22.1 17.9-40 40-40zm0 176c-13.3 0-24 10.7-24 24l0 48c0 13.3 10.7 24 24 24l48 0c13.3 0 24-10.7 24-24l0-48c0-13.3-10.7-24-24-24l-48 0zm-40 24c0-22.1 17.9-40 40-40l48 0c22.1 0 40 17.9 40 40l0 48c0 22.1-17.9 40-40 40l-48 0c-22.1 0-40-17.9-40-40l0-48zM408 144l-48 0c-13.3 0-24 10.7-24 24l0 48c0 13.3 10.7 24 24 24l48 0c13.3 0 24-10.7 24-24l0-48c0-13.3-10.7-24-24-24zm-48-16l48 0c22.1 0 40 17.9 40 40l0 48c0 22.1-17.9 40-40 40l-48 0c-22.1 0-40-17.9-40-40l0-48c0-22.1 17.9-40 40-40zm0 176c-13.3 0-24 10.7-24 24l0 48c0 13.3 10.7 24 24 24l48 0c13.3 0 24-10.7 24-24l0-48c0-13.3-10.7-24-24-24l-48 0zm-40 24c0-22.1 17.9-40 40-40l48 0c22.1 0 40 17.9 40 40l0 48c0 22.1-17.9 40-40 40l-48 0c-22.1 0-40-17.9-40-40l0-48z"/></svg>

<svg xmlns="http://www.w3.org/2000/svg" viewBox="0 0 448 512"><!--! Font Awesome Pro 6.5.2 by @fontawesome - https://fontawesome.com License - https://fontawesome.com/license (Commercial License) Copyright 2024 Fonticons, Inc. --><path d="M40 144c-13.3 0-24 10.7-24 24v48c0 13.3 10.7 24 24 24H88c13.3 0 24-10.7 24-24V168c0-13.3-10.7-24-24-24H40zM0 168c0-22.1 17.9-40 40-40H88c22.1 0 40 17.9 40 40v48c0 22.1-17.9 40-40 40H40c-22.1 0-40-17.9-40-40V168zM40 304c-13.3 0-24 10.7-24 24v48c0 13.3 10.7 24 24 24H88c13.3 0 24-10.7 24-24V328c0-13.3-10.7-24-24-24H40zM0 328c0-22.1 17.9-40 40-40H88c22.1 0 40 17.9 40 40v48c0 22.1-17.9 40-40 40H40c-22.1 0-40-17.9-40-40V328zM248 144H200c-13.3 0-24 10.7-24 24v48c0 13.3 10.7 24 24 24h48c13.3 0 24-10.7 24-24V168c0-13.3-10.7-24-24-24zm-48-16h48c22.1 0 40 17.9 40 40v48c0 22.1-17.9 40-40 40H200c-22.1 0-40-17.9-40-40V168c0-22.1 17.9-40 40-40zm0 176c-13.3 0-24 10.7-24 24v48c0 13.3 10.7 24 24 24h48c13.3 0 24-10.7 24-24V328c0-13.3-10.7-24-24-24H200zm-40 24c0-22.1 17.9-40 40-40h48c22.1 0 40 17.9 40 40v48c0 22.1-17.9 40-40 40H200c-22.1 0-40-17.9-40-40V328zM408 144H360c-13.3 0-24 10.7-24 24v48c0 13.3 10.7 24 24 24h48c13.3 0 24-10.7 24-24V168c0-13.3-10.7-24-24-24zm-48-16h48c22.1 0 40 17.9 40 40v48c0 22.1-17.9 40-40 40H360c-22.1 0-40-17.9-40-40V168c0-22.1 17.9-40 40-40zm0 176c-13.3 0-24 10.7-24 24v48c0 13.3 10.7 24 24 24h48c13.3 0 24-10.7 24-24V328c0-13.3-10.7-24-24-24H360zm-40 24c0-22.1 17.9-40 40-40h48c22.1 0 40 17.9 40 40v48c0 22.1-17.9 40-40 40H360c-22.1 0-40-17.9-40-40V328z"/></svg>
